X:273
T: MIHI EST PROPOSITUM
N: F0477
O: Europa, Mitteleuropa, Deutschland
R: Studenten -, Trink -, Zech - Lied
M: 2/4
L: 1/16
K: C
 | c2G2G2EF | G2G2G4 |
AGFEFGAB | c4C4 |
e2e2d2d2 | c2c2B4 |
c2G2B2c2 | d4G4 |
G2G2A2Bc | d2d2G4 |
c2c2c2c2 | B4G4 |
c2G2c2G2 | e2c2G4 |
c2G2E2EF | G4C2z2

@@@ Tune index: 5704
